X:1
T:Versailles, 76.76.66.76
T:Versailles, 76.76.66.76
T:James McGranahan, 1877
T:Public Domain Courtesy of the Cyber Hymnal™
C:James McGranahan, 1877
Z:Public Domain
Z:Courtesy of the Cyber Hymnal™
%%score ( 1 2 ) ( 3 4 )
L:1/8
Q:1/4=106
M:6/8
K:Db
V:1 treble 
V:2 treble 
V:3 bass 
V:4 bass 
V:1
 D2 [DE] [DF]2 [DE] | (DF)[DA] [DB]3 | [FA]2 [Fd] [FA]2 [DF] | [DF]3 [CE]3 | D2 [DE] [DF]2 [DE] | %5
 (DF)[DA] [DB]3 | [FA]2 [Fd] [FA]2 [DF] | [CE]3 D3 | [Fd]2 [Ac] [GB]3 | [Gd]2 [GB] [FA]3 | %10
 [GB]2 [FA] [DF]2 D | [DF]3 [CE]3 | D2 [DE] [DF]2 [DE] | (DF)[DA] [DB]3 | [FA]2 [Fd] [FA]2 [DF] | %15
 [CE]3 D3 |] %16
V:2
 D2 x4 | D2 x4 | x6 | x6 | D2 x4 | D2 x4 | x6 | x3 D3 | x6 | x6 | x5 D | x6 | D2 x4 | D2 x4 | x6 | %15
 x3 D3 |] %16
V:3
 [D,F,]2 [D,G,] [D,A,]2 [D,G,] | (F,A,)[F,A,] G,3 | [D,A,]2 [D,A,] [D,D]2 [D,A,] | %3
 [A,,A,]3 [A,,A,]3 | [D,F,]2 [D,G,] [D,A,]2 [D,G,] | (F,A,)[F,A,] G,3 | %6
 [D,A,]2 [D,A,] [D,D]2 [D,A,] | [A,,G,]3 [D,F,]3 | [D,A,]2 [F,A,] [G,D]3 | [G,B,]2 [G,D] [D,D]3 | %10
 [D,D]2 [D,D] [D,A,]2 [D,F,] | [A,,A,]3 [A,,A,]3 | [D,F,]2 [E,G,] [D,A,]2 [D,G,] | %13
 (F,A,)[F,A,] G,3 | [D,A,]2 [D,A,] [D,D]2 [D,A,] | [A,,G,]3 [D,F,]3 |] %16
V:4
 x6 | D,2 G,3 x | x6 | x6 | x6 | D,2 G,3 x | x6 | x6 | x6 | x6 | x6 | x6 | x6 | D,2 G,3 x | x6 | %15
 x6 |] %16

